images/amp-icon-menu-open.svg

<?xml version="1.0" encoding="utf-8"?>
<!-- Generator: Adobe Illustrator 16.0.3, SVG Export Plug-In . SVG Version: 6.00 Build 0)  -->
<!DOCTYPE svg PUBLIC "-//W3C//DTD SVG 1.1//EN" "http://www.w3.org/Graphics/SVG/1.1/DTD/svg11.dtd">
<svg version="1.1" id="Layer_1" xmlns="http://www.w3.org/2000/svg" xmlns:xlink="http://www.w3.org/1999/xlink" x="0px" y="0px"
	 width="38px" height="38px" viewBox="0 0 38 38" enable-background="new 0 0 38 38" xml:space="preserve">
<path fill="#646565" d="M0.438,31.75h37.25v-4.139H0.438V31.75z M0.438,21.402h37.25v-4.138H0.438V21.402z M0.438,6.917v4.139h37.25
	V6.917H0.438z"/>
</svg>

<svg xmlns="http://www.w3.org/2000/svg" width="38" height="38"><path fill="#707E89" d="M.44 31.75H37.7V27.6H.43v4.15zm0-10.35H37.7v-4.14H.43v4.14zm0-14.48v4.14H37.7V6.92H.43z"/></svg>
